X:1
T:Kentucky Bootlegger
M:4/4
L:1/8
K:G
 G| GG GB-B BB B| A2 A2 G4-| G6 G2| G2 G B2 Bd d| cc e2
M:4/4
| d8-| d6 z2| d2 d2 e2 ee| c2 c2 d4| G2 G2 BB B2| A2 A2 G4|||
